!!!COM: Haydn, Franz Joseph
!!!OPR: String Quartet in C Major
!!!ONM: Opus 50, No. 2
!!!OTL: Affettuoso 
!!!OMV: 3
!!!SCT: H III:45
!!!SCA: Thematisch-bibliographisches Werkevererzeichnis (A. van Hoboken)
!!!YOR: Trautwein Edition
!!!EED: Frances Bennion
!!!ENC: Frances Bennion
!!!CDT: 1732/3/31/-1809/5/31/
!!!OCY: Österreich
!!!YEC: Copyright (c) 1994, 2000 Center for Computer Assisted Research in the Humanities
!!!YEM: Rights to all derivative editions reserved.
!!!YEM: Refer to licensing agreement for further details.
!!!YEN: United States of America
**kern	**kern	**kern	**kern
*k[]	*k[]	*k[]	*k[]
*C:	*C:	*C:	*C:
*clefG	*clefG	*clefC3	*clefF4
*M3/4	*M3/4	*M3/4	*M3/4
*tb8	*tb8	*tb8	*tb8
=0-	=0-	=0-	=0-
2r	2r	2r	2r
4g	4r	4r	4r
=1	=1	=1	=1
4gg	2.r	2.r	2.r
4ee	.	.	.
4cc	.	.	.
=2	=2	=2	=2
[2.g	4r	2.r	4r
.	4e	.	4c#
.	4f	.	4d
=3	=3	=3	=3
2g]	4d	2r	4B
.	4e	.	4c
4cc	4f#	4a	4A
=4	=4	=4	=4
4ee	4g	4cc	2G
4dd	2r	4b	.
4g	.	4r	4r
=5	=5	=5	=5
4aa	2.r	2.r	2.r
4ff	.	.	.
4dd	.	.	.
=6	=6	=6	=6
2b	4r	4r	2.r
.	4a-	4f	.
4cc	8g	4e	.
.	8cc	.	.
=7	=7	=7	=7
4dd	2cc	2A	4F
4ee-	.	.	4F#
4b	[4f	4G	4G
=8	=8	=8	=8
4dd	4f]	4B	2C
4cc	4e	4c	.
4g	4r	4r	4r
=9	=9	=9	=9
4bb-	2.r	2.r	2.r
4gg	.	.	.
4ee	.	.	.
=10	=10	=10	=10
2cc#	4r	4r	2.r
.	4b-	4g	.
4dd	4a	4f	.
=11	=11	=11	=11
4ee	4cc#	4e	2.r
4aa	4a	4c#	.
4gg	4cc#	4e	.
=12	=12	=12	=12
4ff	4dd	4d	2r
4ee	4cc#	4A	.
4r	4r	4r	4AA
=13	=13	=13	=13
2r	2r	2r	4A
.	.	.	4F
4ff	4g#	4d	4D
=14	=14	=14	=14
4ee	4a	4e	4C#
4cc#	2r	2r	4AA
4r	.	.	4GG
=15	=15	=15	=15
2r	2r	2r	4B-
.	.	.	4G
4ccc#	4b-	4g	4E
=16	=16	=16	=16
4ddd	2.a	4f	2.F
4aa	.	4dd	.
4ff	.	4dd	.
=17	=17	=17	=17
4ee	2b-	4dd	2G
4gg	.	4r	.
4cc#	4g	4cc#	4A
=18	=18	=18	=18
2.ee	2.g	2.cc#	[2.B-
=19	=19	=19	=19
2dd	2f	2dd	2.B-]
4r	4r	4r	.
=20	=20	=20	=20
2r	2.r	2.r	2.r
4f	.	.	.
=21	=21	=21	=21
4aa	2.r	2.r	2.r
4ff	.	.	.
4dd	.	.	.
=22	=22	=22	=22
[2.a	4r	4r	2.r
.	4f#	4d#	.
.	4g	4e	.
=23	=23	=23	=23
2a]	4e	4c#	2.r
.	4f	4d	.
4f	4r	4r	.
=24	=24	=24	=24
4aa	2.r	2.r	2.r
4ff	.	.	.
4dd	.	.	.
=25	=25	=25	=25
4gg	2.r	2.r	2.r
4ee	.	.	.
4cc	.	.	.
=26	=26	=26	=26
[2.g	4r	2.r	4r
.	4e	.	4c#
.	4f	.	4d
=27	=27	=27	=27
2g]	4d	2r	4B
.	4e	.	4c
4cc	4f#	4a	4A
=28	=28	=28	=28
4ee	4g	4cc	2G
4dd	2r	4b	.
4g	.	4r	4r
=29	=29	=29	=29
4aa	2.r	2.r	2.r
4ff	.	.	.
4dd	.	.	.
=30	=30	=30	=30
2b	4r	4r	2.r
.	4a-	4f	.
4cc	8g	4e	.
.	8cc	.	.
=31	=31	=31	=31
4dd	2cc	2A	4F
4ee-	.	.	4F#
4b	[4f	4G	4G
=32	=32	=32	=32
4dd	4f]	4B	4G#
4cc	4e	4A	4A
4r	4r	4r	4r
=33	=33	=33	=33
4ff	4dd	2.r	2.r
4aa	4ff	.	.
4dd	4b	.	.
=34	=34	=34	=34
4ff	4dd	2.r	2.r
4ee	4cc	.	.
4r	4r	.	.
=35	=35	=35	=35
4aa	2ee	2.r	4C
4ccc	.	.	4AA
4ff#	[4cc	.	4D
=36	=36	=36	=36
4aa	4cc]	2r	[2.GG
4gg	4b	.	.
4r	4r	4G	.
=37	=37	=37	=37
2.r	2.r	4g	2.GG_
.	.	4e	.
.	.	4c	.
=38	=38	=38	=38
4r	4r	[2.G	2.GG_
4ee	4cc#	.	.
4ff	4dd	.	.
=39	=39	=39	=39
4dd	4b	2G]	2.GG_
4ee	4cc	.	.
4cc	4a	4F#	.
=40	=40	=40	=40
4ee	4cc	2G	2.GG_
4dd	4b	.	.
4r	4r	4G	.
=41	=41	=41	=41
2.r	2.r	4a	2.GG]
.	.	4f	.
.	.	4d	.
=42	=42	=42	=42
4r	4r	2B	2GG 2D
4aa	4ff	.	.
4gg	4ee	4c	4E
=43	=43	=43	=43
4ff	4dd	4a	4F 4GG
4ee	4cc	4g	4G 4GG
4dd	4b	4f	4G 4GG
=44	=44	=44	=44
4cc	4cc	4e	4C
4r	2r	2r	2r
4cc	.	.	.
=45	=45	=45	=45
4ccc	[2.f 2.cc	2.A-	2.A-
4aa-	.	.	.
4ff	.	.	.
=46	=46	=46	=46
4ee	4cc 4g]	4B-	4G
4r	2r	2r	2r
4cc	.	.	.
=47	=47	=47	=47
4ccc	[2.g 2.cc	2.B-	2.E
4bb-	.	.	.
4gg	.	.	.
=48	=48	=48	=48
4aa-	4cc 4a-]	4c	4F
4r	2r	2r	2r
4ff	.	.	.
=49	=49	=49	=49
4fff	4b 4d	4f 4G	4GG
4ddd	2r	2r	2r
4bb	.	.	.
=50	=50	=50	=50
4ccc	4cc 4e	4G 4e	4CC
2r	4r	2r	2r
.	4g	.	.
=51	=51	=51	=51
2.r	4cc	8e	2.c
.	.	8g	.
.	4ee	8a	.
.	.	8g	.
.	4gg	8e	.
.	.	8g	.
=52	=52	=52	=52
2r	4gg	8d	2.B
.	.	8g	.
.	2r	8b	.
.	.	8dd	.
4g	.	8b	.
.	.	8g	.
=53	=53	=53	=53
4a	2.r	8c	2.A
.	.	8e	.
4cc	.	8f	.
.	.	8e	.
4ee	.	8c	.
.	.	8e	.
=54	=54	=54	=54
4ee	2r	8B	2.G
.	.	8e	.
2r	.	8g	.
.	.	8b	.
.	4e	8g	.
.	.	8e	.
=55	=55	=55	=55
2.r	4f	8A	2.F
.	.	8c	.
.	4a	8d	.
.	.	8c	.
.	4cc	8A	.
.	.	8c	.
=56	=56	=56	=56
2r	4cc	8G	2.E
.	.	8c	.
.	2r	8e	.
.	.	8g	.
4cc	.	8e	.
.	.	8c	.
=57	=57	=57	=57
4ccc	2.r	8A	2.D
.	.	8c	.
4aa	.	8d	.
.	.	8f#	.
4ff#	.	8a	.
.	.	8cc	.
=58	=58	=58	=58
4gg	2r	4b	4GG
4r	.	2r	2r
4dd	4b	.	.
=59	=59	=59	=59
4ff	4dd	2.r	8G
.	.	.	8B
4dd	4b	.	8d
.	.	.	8B
4ff	4dd	.	8G
.	.	.	8B
=60	=60	=60	=60
4ee	4cc	2.r	8G
.	.	.	8c
4r	4r	.	8e
.	.	.	8g
4ccc	4ee	.	8e
.	.	.	8c
=61	=61	=61	=61
4ddd	4ff	2.r	8G
.	.	.	8B
4bb	4dd	.	8d
.	.	.	8B
4ddd	4ff	.	8G
.	.	.	8B
=62	=62	=62	=62
4ccc	4ee	2.r	8c
.	.	.	8G
4r	4r	.	8E
.	.	.	8C
4ee	4cc	.	8E
.	.	.	8C
=63	=63	=63	=63
4ff	4dd	8G	4GG
.	.	8B	.
4dd	4b	8d	2r
.	.	8B	.
4ff	4dd	8G	.
.	.	8B	.
=64	=64	=64	=64
4ee	4cc	8G	4GG
.	.	8c	.
4r	4r	8e	2r
.	.	8c	.
4ee	4cc	8G	.
.	.	8c	.
=65	=65	=65	=65
4ccc	4a	8A	4GG
.	.	8c	.
4aa	4f#	8d	2r
.	.	8c	.
4ff#	4a	8A	.
.	.	8c	.
=66	=66	=66	=66
4gg	4g	4B	4GG
4r	2r	2r	2r
4g	.	.	.
=67	=67	=67	=67
4cc	8e	2.e	2.c
.	8g	.	.
4ee	8a	.	.
.	8g	.	.
4gg	8e	.	.
.	8g	.	.
=68	=68	=68	=68
4gg	8d	4d	4B
.	8g	.	.
2r	8b	2r	2r
.	8dd	.	.
.	4r	.	.
=69	=69	=69	=69
2r	2.r	2.r	2.r
4g	.	.	.
=70	=70	=70	=70
4cc	8e	2.c	2.r
.	8g	.	.
4ee	8a	.	.
.	8g	.	.
4gg	8e	.	.
.	8g	.	.
=71	=71	=71	=71
4gg	8d	4B	2.r
.	8g	.	.
2r	8b	2r	.
.	8dd	.	.
.	8b	.	.
.	8g	.	.
=72	=72	=72	=72
2.r	2.r	2.r	2.r
=73	=73	=73	=73
2.r	2.r	8E	4CC
.	.	8G	.
.	.	8A	4EE
.	.	8G	.
.	.	8E	4GG
.	.	8G	.
=74	=74	=74	=74
2r	2.r	8D	4GG
.	.	8G	.
.	.	8B	2r
.	.	8d	.
4g	.	8B	.
.	.	8G	.
=75	=75	=75	=75
4cc	8e	4g	2.C
.	8g	.	.
4ee	8a	4e	.
.	8g	.	.
4gg	8e	4c	.
.	8g	.	.
=76	=76	=76	=76
4gg	8e	4a	2.C#
.	8g	.	.
4ee	8a	4g	.
.	8ee	.	.
4a	8a	4e	.
.	8g	.	.
=77	=77	=77	=77
4ff	8f	4b-	2.D
.	8a	.	.
4dd	8b-	4f	.
.	8a	.	.
4b-	8f	4d	.
.	8a	.	.
=78	=78	=78	=78
4bb-	8g	4cc	2.E
.	8b-	.	.
4gg	8cc	4b-	.
.	8gg	.	.
4cc	8cc	4g	.
.	8b-	.	.
=79	=79	=79	=79
4aa	8a	4cc	2.F
.	8cc	.	.
4ff	8ff	4a	.
.	8aa	.	.
4cc	8ff	4f	.
.	8cc	.	.
=80	=80	=80	=80
4ccc	8a	4e-	2.F#
.	8cc	.	.
4aa	8ee-	4c	.
.	8ff#	.	.
4ee-	8aa	4A	.
.	8cc	.	.
=81	=81	=81	=81
2ee	8g	2G	2.G
.	8cc	.	.
.	8ee	.	.
.	8gg	.	.
8dd	8ff	8B	.
8b	8dd	8d	.
=82	=82	=82	=82
4cc	4cc	4e	4C
2r	2r	2r	2r
==	==	==	==
*-	*-	*-	*-
!!!RWG1: This file contains only pitch and duration data.
!!!RWG2: Transposing instruments are not transposed.
!!!RWG3: Spines may have incompatible meters.
!!!RWG4: Durations of rests and tied notes may be interpreted.
!!!RWG: Key is interpreted using the Humdrum key tool.
!!!GTL: 6 Quartetti ("Prussian")
!!!AFT: stage1
!!!END: 1997/04/15
!!format changes:
!!content changes:
!!public access: complete
!!!KEY: 2796815637
!!!EMD: Converted from MuseData to Humdrum Dec 16, 2000, by Andreas Kornstaedt using muse2kern.
